static/assets/images/logos/monochrome/cardstack.svg

<svg viewBox="0 0 173 88" height="88" width="173" xmlns="http://www.w3.org/2000/svg"><g fill="none" fill-rule="evenodd"><path d="M14.666 59.184l6.406-3.202-14.659-7.327-6.365 3.182zm8.275-4.137l6.383-3.19L6.408 40.402l-6.382 3.19zm-.024-8.261l6.388-3.194-6.383-3.19-6.388 3.194z" fill="#000000"/><path d="M6.388 32.138L0 35.332l14.665 7.33 6.388-3.195-14.666-7.33zm16.534 6.395l6.408-3.202-6.387-3.192-6.41 3.201zM14.665 28l-6.41 3.204 6.411 3.202 6.408-3.202z" fill="#000000"/><path d="M50.57 38.318c-1.19-1.139-2.826-1.694-4.573-1.694-3.714 0-6.734 2.723-6.734 6.974 0 4.252 3.02 6.974 6.734 6.974 1.747 0 3.465-.528 4.657-1.638v1.972c-1.302.778-2.966 1.223-4.629 1.223-4.988 0-8.509-3.473-8.509-8.531 0-5.085 3.77-8.53 8.51-8.53 1.662 0 3.214.444 4.545 1.25zm9.632-1.583l-3.437 9.114h6.901zm-3.963 10.559L54.52 51.85h-1.774l6.376-16.506h2.188l6.458 16.506h-1.83l-1.718-4.557h-7.98zm16.008-3.251h1.718c2.717 0 4.324-1.278 4.324-3.807 0-2.112-1.302-3.667-4.656-3.667-.334 0-.998.027-1.386.055zm0 7.808H70.53V35.318c.748-.111 2.161-.25 3.132-.25 4.433 0 6.402 2.056 6.402 5.112 0 2.446-1.386 4.252-3.576 4.891l5.461 6.78h-2.135l-5.101-6.39h-2.466zm14.055-1.335a15.29 15.29 0 0 0 1.912.112c4.712 0 8.038-2.362 8.038-7.391 0-3.89-2.467-6.613-8.343-6.613-.526 0-1.025.027-1.607.083v13.81zm-1.719-15.225a30.34 30.34 0 0 1 3.381-.223c7.54 0 10.089 3.919 10.089 8.143 0 4.64-2.688 8.919-9.867 8.919-1.385 0-2.439-.11-3.603-.25V35.29zm16.04 13.671c1.33 1.056 2.522 1.695 4.183 1.695 1.97 0 3.66-.862 3.66-3.027 0-1.975-1.47-2.725-3.437-3.447-2.937-1.084-4.517-2.056-4.517-4.862 0-2.807 2.327-4.254 4.794-4.254 1.607 0 2.937.5 3.935 1.306v1.779c-1.33-1.055-2.44-1.612-3.935-1.612-1.857 0-3.132 1.112-3.132 2.807 0 1.584.941 2.362 3.325 3.195 3.05 1.056 4.656 2.195 4.656 5.085 0 3.029-2.383 4.502-5.349 4.502-1.774 0-3.186-.5-4.184-1.279v-1.889zm18.466 2.89h-1.718V36.847h-5.433v-1.502h12.584v1.502h-5.433V51.85zm11.758-15.116l-3.437 9.114h6.9zm-3.964 10.559l-1.719 4.557h-1.773l6.375-16.506h2.19l6.456 16.506h-1.83l-1.717-4.557zm25.595-8.974c-1.192-1.14-2.827-1.696-4.573-1.696-3.714 0-6.734 2.723-6.734 6.974 0 4.252 3.02 6.975 6.734 6.975 1.747 0 3.464-.528 4.657-1.64v1.973c-1.304.778-2.967 1.223-4.629 1.223-4.988 0-8.509-3.473-8.509-8.53 0-5.086 3.77-8.532 8.51-8.532a8.71 8.71 0 0 1 4.544 1.252v2zm12.896-2.974h2.133l-7.427 8.224 7.955 8.281h-2.217l-7.871-8.113zm-9.257 16.505h1.719V35.345h-1.719V51.85zm14.838-.954h.149c.22 0 .366-.086.366-.297 0-.194-.129-.297-.366-.297-.05 0-.1.005-.15.012v.582zm0 .948h-.431v-1.865c.19-.038.38-.057.575-.06.5 0 .806.227.806.664a.574.574 0 0 1-.35.55l.529.711h-.513l-.44-.615h-.177v.615zm.218.524c.824 0 1.42-.605 1.42-1.456 0-.852-.595-1.456-1.42-1.456-.822 0-1.418.604-1.418 1.456 0 .851.596 1.454 1.418 1.454zm0-3.111c.949 0 1.636.722 1.636 1.655 0 .932-.687 1.655-1.636 1.655-.945 0-1.633-.723-1.633-1.655 0-.933.688-1.656 1.633-1.656z" fill="#000000"/></g></svg>

<?xml version="1.0" encoding="UTF-8" standalone="no"?>
<!DOCTYPE svg PUBLIC "-//W3C//DTD SVG 1.1//EN" "http://www.w3.org/Graphics/SVG/1.1/DTD/svg11.dtd">
<svg viewBox="0 0 173 32" version="1.1" xmlns="http://www.w3.org/2000/svg" xmlns:xlink="http://www.w3.org/1999/xlink" xml:space="preserve" xmlns:serif="http://www.serif.com/" style="fill-rule:evenodd;clip-rule:evenodd;stroke-linejoin:round;stroke-miterlimit:2;">
    <g transform="matrix(1,0,0,1,0,-28)">
        <path d="M14.666,59.184L21.072,55.982L6.413,48.655L0.048,51.837L14.666,59.184ZM22.941,55.047L29.324,51.857L6.408,40.402L0.026,43.592L22.941,55.047ZM22.917,46.786L29.305,43.592L22.922,40.402L16.534,43.596L22.917,46.786Z"/>
        <path d="M6.388,32.138L0,35.332L14.665,42.662L21.053,39.467L6.387,32.137L6.388,32.138ZM22.922,38.533L29.33,35.331L22.943,32.139L16.533,35.34L22.922,38.533ZM14.665,28L8.255,31.204L14.666,34.406L21.074,31.204L14.665,28Z"/>
        <path d="M50.57,38.318C49.38,37.179 47.744,36.624 45.997,36.624C42.283,36.624 39.263,39.347 39.263,43.598C39.263,47.85 42.283,50.572 45.997,50.572C47.744,50.572 49.462,50.044 50.654,48.934L50.654,50.906C49.352,51.684 47.688,52.129 46.025,52.129C41.037,52.129 37.516,48.656 37.516,43.598C37.516,38.513 41.286,35.068 46.026,35.068C47.688,35.068 49.24,35.512 50.571,36.318L50.57,38.318ZM60.202,36.735L56.765,45.849L63.666,45.849L60.202,36.735ZM56.239,47.294L54.52,51.85L52.746,51.85L59.122,35.344L61.31,35.344L67.768,51.85L65.938,51.85L64.22,47.293L56.24,47.293L56.239,47.294ZM72.247,44.043L73.965,44.043C76.682,44.043 78.289,42.765 78.289,40.236C78.289,38.124 76.987,36.569 73.633,36.569C73.299,36.569 72.635,36.596 72.247,36.624L72.247,44.043ZM72.247,51.851L70.53,51.851L70.53,35.318C71.278,35.207 72.691,35.068 73.662,35.068C78.095,35.068 80.064,37.124 80.064,40.18C80.064,42.626 78.678,44.432 76.488,45.071L81.949,51.851L79.814,51.851L74.713,45.461L72.247,45.461L72.247,51.851ZM86.302,50.516C86.936,50.593 87.575,50.631 88.214,50.628C92.926,50.628 96.252,48.266 96.252,43.237C96.252,39.347 93.785,36.624 87.909,36.624C87.383,36.624 86.884,36.651 86.302,36.707L86.302,50.517L86.302,50.516ZM84.583,35.291C85.705,35.154 86.834,35.079 87.964,35.068C95.504,35.068 98.053,38.987 98.053,43.211C98.053,47.851 95.365,52.13 88.186,52.13C86.801,52.13 85.747,52.02 84.583,51.88L84.583,35.29L84.583,35.291ZM100.623,48.962C101.953,50.018 103.145,50.657 104.806,50.657C106.776,50.657 108.466,49.795 108.466,47.63C108.466,45.655 106.996,44.905 105.029,44.183C102.092,43.099 100.512,42.127 100.512,39.321C100.512,36.514 102.839,35.067 105.306,35.067C106.913,35.067 108.243,35.567 109.241,36.373L109.241,38.152C107.911,37.097 106.801,36.54 105.306,36.54C103.449,36.54 102.174,37.652 102.174,39.347C102.174,40.931 103.115,41.709 105.499,42.542C108.549,43.598 110.155,44.737 110.155,47.627C110.155,50.656 107.772,52.129 104.806,52.129C103.032,52.129 101.62,51.629 100.622,50.85L100.622,48.961L100.623,48.962ZM119.089,51.852L117.371,51.852L117.371,36.847L111.938,36.847L111.938,35.345L124.522,35.345L124.522,36.847L119.089,36.847L119.089,51.852ZM130.847,36.736L127.41,45.85L134.31,45.85L130.847,36.736ZM126.883,47.295L125.164,51.852L123.391,51.852L129.766,35.346L131.956,35.346L138.412,51.852L136.582,51.852L134.865,47.295L126.883,47.295ZM152.478,38.321C151.286,37.181 149.651,36.625 147.905,36.625C144.191,36.625 141.171,39.348 141.171,43.599C141.171,47.851 144.191,50.574 147.905,50.574C149.652,50.574 151.369,50.046 152.562,48.934L152.562,50.907C151.258,51.685 149.595,52.13 147.933,52.13C142.945,52.13 139.424,48.657 139.424,43.6C139.424,38.514 143.194,35.068 147.934,35.068C149.535,35.06 151.107,35.493 152.478,36.32L152.478,38.321ZM165.374,35.347L167.507,35.347L160.08,43.571L168.035,51.852L165.818,51.852L157.947,43.739L165.374,35.347ZM156.117,51.852L157.836,51.852L157.836,35.345L156.117,35.345L156.117,51.852ZM170.954,50.898L171.104,50.898C171.324,50.898 171.47,50.812 171.47,50.601C171.47,50.407 171.341,50.304 171.104,50.304C171.054,50.304 171.004,50.309 170.954,50.316L170.954,50.898ZM170.955,51.846L170.524,51.846L170.524,49.981C170.714,49.943 170.904,49.924 171.099,49.921C171.599,49.921 171.905,50.148 171.905,50.585C171.914,50.823 171.774,51.042 171.555,51.135L172.084,51.846L171.571,51.846L171.131,51.231L170.954,51.231L170.954,51.846L170.955,51.846ZM171.173,52.37C171.997,52.37 172.593,51.765 172.593,50.914C172.593,50.062 171.998,49.458 171.173,49.458C170.351,49.458 169.755,50.062 169.755,50.914C169.755,51.765 170.351,52.368 171.173,52.368L171.173,52.37ZM171.173,49.259C172.122,49.259 172.809,49.981 172.809,50.914C172.809,51.846 172.122,52.569 171.173,52.569C170.228,52.569 169.54,51.846 169.54,50.914C169.54,49.981 170.228,49.258 171.173,49.258L171.173,49.259Z"/>
    </g>
</svg>
